X:33
T:Reel 33
M:4/4
K:Dmaj
L:1/8
FE|D2DF A2AB|AFdB AFDF|B2BG E2EF|GABc dBAF|D2DF A2AB|AFdB AFDF|G2BG F2AF|EFDE F2|FG|A2dB A2FA|d2dB AFDF|A2de d2BA| (3Bcd AF E2FA|DFdc d2dA|FAdB A2FF|G2GG F2AF|EDFD E2|
